X: 1062
T: Hicazkârkürdî Seyir
C: Rauf Yektâ
O: Turkey
F: http://compmusic.upf.edu/node/140
N: hicazkarkurdi--seyir--semai--1--rauf_yekta
N: makam= hicazkarkurdi
N: form= seyir
N: usul= semai = 3/4
M: 3/4
L: 1/16
K: C _B _e _A 
Q: 1/4=120
%%MIDI tuningsystem comma53
G8 f4  | g8 f4  | e8 f4  | g8 z4  | g8 c'4  | \
w:   |   |   |   |   | 
b8 a4  | a8 f4  | g8 z4  | g8 b4  | b4 a4 g4  | 
w:   |   |   |   |   | 
a2b2 a4 b4  | c'8 z4  | c'4 b4 a4  | g8 f4  | \
w:   |   |   |   | 
d4 e4 f4  | g8 z4  | g8 a4  | b8 g4  | a8 g4  | 
w:   |   |   |   |   | 
f8 z4  | e4 f4 g4  | a4 g4 f4  | f4 e4 d4  | \
w:   |   |   |   | 
d8 z4  | c4 d4 e4  | f4 g8  | g4 f4 e4  | 
w:   |   |   |   | 
d4 c8  | B4 c4 d4  | e8 d2c2  | B8 A4  | G8 z4  | |


